X:2
T:Susan Salsitz
R:Strathspey
C:Angus Lawrie
M:C
L:1/8
Q:"115 bpm"
K:D
[|: {g}B<d {g}A>d {g}B<d {g}A>d | {g}f>d {gf}g>f {gef}e2 {A}e>f | {g}B<d {g}A>d {g}B<d {g}A>d | {g}e>d {g}f>e {Gdc}d2 {g}d>f :|]
a>f {g}e>f {g}B<d {g}A>f | a>d {gf}g>f {gef}e2 {A}e>f | a>f {g}e>f {g}B<d {g}A>f | {g}e>d {g}f>e {Gdc}d2 {g}d>f |
a>f {g}e>f {g}B<d {g}A>f | a>d {gf}g>f {gef}e2 {A}e>f | {g}B<d {g}A>d {g}B<d {g}A>d | {g}e>d {g}f>e {Gdc}d2 {g}d>f ||
[|: {g}A2 {GdGe}A>d {gBd}B>A {g}B<d | {g}A>B {Gdc}d>f {gef}e2 {A}e>f | {g}A2 {GdGe}A>d {gBd}B>A {g}B<d | {g}e>d {g}f>e {Gdc}d2 {g}d>f :|]
a>f {g}f/e/d {g}d<f {g}A>f | a>d {gf}g>f {gef}e2 {A}e>f | a>f {g}f/e/d {g}d<f {g}A>f | {g}e>d {g}f>e {Gdc}d2 {g}d>f |
a>f {g}f/e/d {g}d<f {g}A>f | a>d {gf}g>f {gef}e2 {A}e>f | {g}B/c/d {g}A>f {g}f/e/d {gBd}B>d | {g}e>d {g}f>e {Gdc}d2 {g}d2 |]

